!!!COM: Palestrina, Giovanni Perluigi da
!!!OPR: Missa De Beata Marie Virginis (I)
!!!OTL: Kyrie
**kern	**kern	**kern	**kern	**kern
*Ibass	*Itenor	*Itenor	*Icalto	*Icant
!Bassus	!Tenor 2	!Tenor 1	!Altus	!Cantus
*clefF4	*clefGv2	*clefGv2	*clefG2	*clefG2
*k[]	*k[]	*k[]	*k[]	*k[]
*G:mix	*G:mix	*G:mix	*G:mix	*G:mix
*M4/2	*M4/2	*M4/2	*M4/2	*M4/2
=1	=1	=1	=1	=1
0r	0r	0r	1c	1r
.	.	.	2.e	1g
.	.	.	4f	.
=2	=2	=2	=2	=2
0r	0r	0r	2g	2b
.	.	.	2a	2cc
.	.	.	[1g	2dd
.	.	.	.	2ee
=3	=3	=3	=3	=3
0r	0r	1G	2g]	1.dd
.	.	.	4f	.
.	.	.	4e	.
.	.	2B	2d	.
.	.	2c	2e	4cc
.	.	.	.	4b
=4	=4	=4	=4	=4
0r	0r	2d	2f#	2a
.	.	2e	1g	2g
.	.	1d	.	2.a
.	.	.	2f#	.
.	.	.	.	4b
=5	=5	=5	=5	=5
1C	0r	2e	2g	4cc
.	.	.	.	4dd
.	.	1g	2cc	1ee
2E	.	.	2b	.
2F	.	4f	2a	4dd
.	.	4e	.	4cc
=6	=6	=6	=6	=6
2G	0r	2d	2g	2b
2A	.	2c	2f#	1cc
1G	.	1d	[1g	.
.	.	.	.	2b
=7	=7	=7	=7	=7
1C	1G	1c	0g]	1ee
2.G	1B	1d	.	2dd
.	.	.	.	[2gg
4F	.	.	.	.
=8	=8	=8	=8	=8
4E	1c	2e	2r	4gg]
4D	.	.	.	4ff
2C	.	1g	2cc	2.ee
2G	1d	.	2b	.
.	.	.	.	4dd
2D	.	2f	[2a	[2dd
=9	=9	=9	=9	=9
1A	1e	0a	4a]	2dd]
.	.	.	4g	.
.	.	.	2e	2cc#
[1D	[1d	.	2f#	1dd
.	.	.	4d	.
.	.	.	4e	.
=10	=10	=10	=10	=10
1D]	1d]	2r	4f#	1a
.	.	.	4g	.
.	.	1d	4a	.
.	.	.	4f#	.
1G	1r	.	1g	1b
.	.	[2e	.	.
=11	=11	=11	=11	=11
1A	1r	2e]	0r	1cc
.	.	1f#	.	.
1B	1d	.	.	1dd
.	.	[2g	.	.
=12	=12	=12	=12	=12
1c	1e	4g]	1g	0cc
.	.	4f	.	.
.	.	4e	.	.
.	.	4d	.	.
1A	1f#	1c	1a	.
=13	=13	=13	=13	=13
2G	1g	2d	2b	0r
2C	.	2e	1cc	.
1G	1d	1g	.	.
.	.	.	2b	.
=14	=14	=14	=14	=14
0r	1f	2d	2a	2r
.	.	2.a	2d	2a
.	1e	.	2r	2b
.	.	4g	.	.
.	.	[2g	2g	2cc#
=15	=15	=15	=15	=15
0r	1d	2g]	2a	1dd
.	.	2f#	2b	.
.	1c	2g	2.cc	1ee
.	.	2a	.	.
.	.	.	4b	.
=16	=16	=16	=16	=16
0r	0d	2f#	2a	1.dd
.	.	1g	2b	.
.	.	.	1a	.
.	.	2f	.	2a
=17	=17	=17	=17	=17
1G	0r	2d	1g	2b
.	.	2.e	.	1g
1A	.	.	1c	.
.	.	4d	.	.
.	.	[2c	.	2f#
=18	=18	=18	=18	=18
1G	0r	2c]	1d	1g
.	.	2B	.	.
2E	.	2G	1c	1r
[2F	.	[2A	.	.
=19	=19	=19	=19	=19
2F]	0r	4A]	2d	1r
.	.	4B	.	.
2E	.	1c	2e	.
1D	.	.	1f	1dd
.	.	2B	.	.
=20	=20	=20	=20	=20
1C	0r	2c	2e	1ee
.	.	2e	2g	.
1r	.	2f#	2a	1dd
.	.	[2g	2b	.
=21	=21	=21	=21	=21
0r	0r	2g]	2g	2b
.	.	2f	2.a	1cc
.	.	2.e	.	.
.	.	.	4g	.
.	.	.	[2g	2b
.	.	4d	.	.
=22	=22	=22	=22	=22
1r	0r	2c	2g]	1a
.	.	1d	2f#	.
1G	.	.	4g	2.g
.	.	.	4f	.
.	.	[2e	4e	.
.	.	.	4d	4f
=23	=23	=23	=23	=23
1A	1r	4e]	1c	2e
.	.	4d	.	.
.	.	1c	.	2f#
1G	1d	.	1r	1g
.	.	2B	.	.
=24	=24	=24	=24	=24
1E	1e	2c	1g	0r
.	.	2B	.	.
1F#	1d	2A	1a	.
.	.	[2d	.	.
=25	=25	=25	=25	=25
1G	1B	2d]	1.g	1dd
.	.	1G	.	.
1C	1c	.	.	1ee
.	.	2G	2e	.
=26	=26	=26	=26	=26
0D	1B	0d	2f#	1.dd
.	.	.	1g	.
.	1A	.	.	.
.	.	.	2f#	2dd
=27	=27	=27	=27	=27
[0G	[0G	[0d	[0g	[0b
=28	=28	=28	=28	=28
0G]	0G]	0d]	0g]	0b]
=29	=29	=29	=29	=29
0r	0r	0r	1r	1dd
.	.	.	1g	2ee
.	.	.	.	2b
=30	=30	=30	=30	=30
0r	0r	0r	2a	1cc
.	.	.	2e	.
.	.	.	2f	1dd
.	.	.	2g	.
=31	=31	=31	=31	=31
0r	0r	0r	2c	1cc
.	.	.	2e	.
.	.	.	2f	1a
.	.	.	[2a	.
=32	=32	=32	=32	=32
0r	0r	1r	4a]	1b
.	.	.	4g	.
.	.	.	1g	.
.	.	1d	.	1a
.	.	.	2f#	.
=33	=33	=33	=33	=33
1r	2r	2e	1g	0g
.	2d	2B	.	.
2r	2e	2c	1r	.
2G	2B	[2d	.	.
=34	=34	=34	=34	=34
2A	1c	4d]	0r	1r
.	.	4c	.	.
2E	.	1c	.	.
2F	1d	.	.	1dd
2G	.	2B	.	.
=35	=35	=35	=35	=35
2C	1c	0c	1g	1ee
2E	.	.	.	.
2F	[1A	.	2a	2cc
2C	.	.	2e	2ee
=36	=36	=36	=36	=36
0D	2A]	1r	2f#	[0dd
.	2B	.	1g	.
.	1A	1d	.	.
.	.	.	2f#	.
=37	=37	=37	=37	=37
1r	2G	2B	1.g	0dd]
.	1d	2G	.	.
1G	.	1B	.	.
.	[2g	.	2d	.
=38	=38	=38	=38	=38
1.c	2g]	1A	2e	0r
.	2f#	.	4d	.
.	.	.	4c	.
.	2.g	2G	1d	.
2B	.	2d	.	.
.	4f	.	.	.
=39	=39	=39	=39	=39
2c	1e	1.g	0r	0r
2G	.	.	.	.
2B-	2d	.	.	.
2A	2c	2f#	.	.
=40	=40	=40	=40	=40
4G	2d	2g	0r	0r
4A	.	.	.	.
4B	2B	2d	.	.
4G	.	.	.	.
4A	1c	2f	.	.
4B	.	.	.	.
[2c	.	2e	.	.
=41	=41	=41	=41	=41
2c]	2G	1d	1g	0r
2B-	1g	.	.	.
1A	.	1c	[1cc	.
.	2f#	.	.	.
=42	=42	=42	=42	=42
1G	1g	1d	2cc]	1dd
.	.	.	2b	.
1C	1e	1c	2cc	[1gg
.	.	.	2g	.
=43	=43	=43	=43	=43
0r	1d	1r	2b-	2gg]
.	.	.	2a	2ff#
.	1G	2r	4g	2gg
.	.	.	4a	.
.	.	2g	4b	2dd
.	.	.	4g	.
=44	=44	=44	=44	=44
0r	0r	2f	4a	2ff
.	.	.	4b	.
.	.	2c	2cc	2ee
.	.	2g	2b	2dd
.	.	2a	[2cc	2cc
=45	=45	=45	=45	=45
1G	2r	1g	2cc]	1dd
.	1g	.	2b	.
1A	.	1c	1cc	2r
.	2f	.	.	[2cc
=46	=46	=46	=46	=46
1G	2e	1r	0r	2cc]
.	2d	.	.	2b
1E	2c	1g	.	1ee
.	2B	.	.	.
=47	=47	=47	=47	=47
1F	2A	1a	0r	2cc
.	2.d	.	.	2dd
1E	.	1g	.	1ee
.	4c	.	.	.
.	[2c	.	.	.
=48	=48	=48	=48	=48
1D	2c]	2f	1r	1ff
.	2B	2d	.	.
1C	2c	2e	1g	2ee
.	2e	[2g	.	2cc
=49	=49	=49	=49	=49
1r	1d	2g]	1a	2dd
.	.	2f	.	2a
1G	1r	2e	1g	1b
.	.	2d	.	.
=50	=50	=50	=50	=50
2A	0r	2c	1e	2r
2G	.	2B	.	2g
2F	.	2A	1f	1a
2D	.	[2d	.	.
=51	=51	=51	=51	=51
2.E	0r	4d]	1e	1g
.	.	4c	.	.
.	.	1c	.	.
4F	.	.	.	.
1G	.	.	1d	[1g
.	.	2B	.	.
=52	=52	=52	=52	=52
1C	1r	1c	4c	2g]
.	.	.	4d	.
.	.	.	4e	2a
.	.	.	4f#	.
1r	1d	2G	1g	2b
.	.	2B	.	[2dd
=53	=53	=53	=53	=53
1r	1e	1A	1a	2dd]
.	.	.	.	2cc
1D	1d	1d	1f#	2b
.	.	.	.	2a
=54	=54	=54	=54	=54
2E	1B	2r	1r	2g
2D	.	2d	.	2f
1C	1c	2g	2r	2e
.	.	2e	2e	[2a
=55	=55	=55	=55	=55
0D	1B	0d	2f#	2a]
.	.	.	2g	1g
.	1A	.	1a	.
.	.	.	.	2f#
=56	=56	=56	=56	=56
[0G	[0G	[0d	[0b	[0g
=57	=57	=57	=57	=57
0G]	0G]	0d]	0b]	0g]
=58	=58	=58	=58	=58
0r	0r	0r	0r	1dd
.	.	.	.	2dd
.	.	.	.	2g
=59	=59	=59	=59	=59
0r	0r	0r	1g	2.b
.	.	.	.	4cc
.	.	.	2g	2dd
.	.	.	2c	[2ee
=60	=60	=60	=60	=60
0r	0r	0r	2e	2ee]
.	.	.	2f	1dd
.	.	.	2g	.
.	.	.	[2a	4cc
.	.	.	.	4b
=61	=61	=61	=61	=61
0r	1r	0r	2a]	2cc
.	.	.	1g	2b
.	1d	.	.	1a
.	.	.	2f#	.
=62	=62	=62	=62	=62
1G	2d	0r	1g	2.b
.	2G	.	.	.
.	.	.	.	4cc
2G	2B	.	1g	2dd
2C	[2c	.	.	[2ee
=63	=63	=63	=63	=63
2E	2c]	0r	2e	2ee]
2F	1d	.	2a	4dd
.	.	.	.	4cc
1G	.	.	4g	4b
.	.	.	4f	4a
.	[2e	.	4e	4g
.	.	.	4d	4f
=64	=64	=64	=64	=64
1A	4e]	0r	1c	2e
.	4d	.	.	.
.	1c	.	.	2f#
1G	.	.	1d	2g
.	4B	.	.	2dd
.	4A	.	.	.
=65	=65	=65	=65	=65
1r	1.B	1d	1G	2dd
.	.	.	.	2g
1G	.	2d	[1g	2.b
.	[2d	2G	.	.
.	.	.	.	4cc
=66	=66	=66	=66	=66
2G	2d]	2B	0g]	2dd
2C	2c	2c	.	2.ee
2G	2B-	1d	.	.
.	.	.	.	4dd
2B-	2G	.	.	[2dd
=67	=67	=67	=67	=67
1A	1r	1e	2.a	2dd]
.	.	.	.	2cc#
.	.	.	4g	.
1D	2r	1d	1f#	2dd
.	[2d	.	.	2a
=68	=68	=68	=68	=68
1G	2d]	0r	1g	1b
.	2e	.	.	.
2A	2f	.	2r	2r
2B	4g	.	2d	[2g
.	4f	.	.	.
=69	=69	=69	=69	=69
2c	4e	1r	2e	2g]
.	4d	.	.	.
2A	2c	.	2f	2a
2G	1d	2r	1g	1b
2B	.	2d	.	.
=70	=70	=70	=70	=70
1A	1c	2e	1a	1cc
.	.	2f	.	.
2.G	1r	2g	2d	2.b
.	.	2d	2g	.
8F	.	.	.	4cc
8E	.	.	.	.
=71	=71	=71	=71	=71
1D	2r	2.f	2a	1dd
.	2d	.	2b	.
.	.	8e	.	.
.	.	8d	.	.
1A	2c	2e	2.cc	2r
.	2e	2c	.	2ee
.	.	.	4b	.
=72	=72	=72	=72	=72
0r	2f#	2d	2a	2dd
.	1g	2e	2g	2cc#
.	.	[1d	1a	2dd
.	2f#	.	.	2a
=73	=73	=73	=73	=73
1G	1g	1d]	2.g	2b
.	.	.	.	2.dd
.	.	.	8f	.
.	.	.	8e	.
1B	1r	1r	2d	.
.	.	.	.	4cc
.	.	.	[2g	2b
=74	=74	=74	=74	=74
1d	0r	1r	2g]	1a
.	.	.	2f#	.
2.B	.	1G	1g	[1dd
4c	.	.	.	.
=75	=75	=75	=75	=75
4d	1G	1B	0r	1dd]
4c	.	.	.	.
4B	.	.	.	.
4A	.	.	.	.
[1G	1B	1d	.	1r
=76	=76	=76	=76	=76
2G]	2d	1B	0r	0r
2E	2G	.	.	.
2F	2A	1d	.	.
2G	2B	.	.	.
=77	=77	=77	=77	=77
0C	2c	1e	1c	1r
.	1e	.	.	.
.	.	2c	1e	1g
.	4d	4B	.	.
.	4c	4A	.	.
=78	=78	=78	=78	=78
0r	2d	1G	1g	1b
.	2e	.	.	.
.	2f#	1r	2a	1dd
.	[2g	.	2b	.
=79	=79	=79	=79	=79
0r	2g]	0r	1g	1b
.	2e	.	.	.
.	2f#	.	2a	1dd
.	2g	.	2b	.
=80	=80	=80	=80	=80
0r	2c	0r	2.cc	1ee
.	4A	.	.	.
.	4B	.	4b	.
.	4c	.	2a	2cc
.	4d	.	.	.
.	[2e	.	4g	4b
.	.	.	4f#	4a
=81	=81	=81	=81	=81
0r	4e]	0r	2g	2b
.	4d	.	.	.
.	4c	.	2e	1cc
.	4B	.	.	.
.	2A	.	2f#	.
.	2G	.	[2g	2b
=82	=82	=82	=82	=82
1D	2.d	1r	2g]	1a
.	.	.	2f#	.
.	4c	.	.	.
1E	2B	1G	[1g	1g
.	2e	.	.	.
=83	=83	=83	=83	=83
1.G	1d	1B	0g]	2r
.	.	.	.	2g
.	2r	1d	.	1b
2G	[2G	.	.	.
=84	=84	=84	=84	=84
0G	2G]	1B	2r	1dd
.	1B	.	1g	.
.	.	1d	.	1b
.	2d	.	2g	.
=85	=85	=85	=85	=85
2r	2.c	1e	2.g	4cc
.	.	.	.	4dd
2.C	.	.	.	4ee
.	4d	.	4f	4ff
.	4e	2c	1e	[1gg
4D	4f	.	.	.
4E	[2g	4B	.	.
4F	.	4A	.	.
=86	=86	=86	=86	=86
2G	2g]	2B	2d	2gg]
2C	2g	1c	2e	2ee
2F	4f	.	2a	1dd
.	4e	.	.	.
2G	4d	2B	[2g	.
.	4c	.	.	.
=87	=87	=87	=87	=87
0D	0d	0A	2g]	2.dd
.	.	.	4f#	.
.	.	.	4e	8cc
.	.	.	.	8b
.	.	.	1f#	1a
=88	=88	=88	=88	=88
[0G	[0d	[0G	[0g	[0b
=89	=89	=89	=89	=89
0G]	0d]	0G]	0g]	0b]
==	==	==	==	==
*-	*-	*-	*-	*-
!!!CDT: 1525/^1526/-1594/2/2
!!!OCY: Italia
!!!AGN: Mass (Paraphrase)
!!!AST: renaissance, vocal
!!!ASW: Gregorian Mass
!!!PWK: Masses, Book Mantuan I
!!!RNB: Cadence finals: D
!!!YOR: Le Opere Complete, v. 18, p. 83
!!!YOO: Rome, Italy: Fratelli Scalera
!!!END: 1992//
!!!EED: John Miller
!!!YEC: Copyright 2000, John Miller
!!!YEN: United States of America
!!!YEM: Rights to all derivative electronic formats reserved.
!!!YEM: Refer to licensing agreement for further details.
!!!YEM: This file must be accompanied by the licensing agreement.
!!!YEM: A copy of the licensing agreement may be found at http://www.music-cog.ohio-state.edu/HumdrumDatabases/Palestrina/license.txt
!!!EMD: converted to Humdrum by Bret Aarden
